Numix/16/status/indicator-keyboard-In-5.svg

<?xml version="1.0" encoding="UTF-8" standalone="no"?>
<svg
   xmlns:dc="http://purl.org/dc/elements/1.1/"
   xmlns:cc="http://creativecommons.org/ns#"
   xmlns:rdf="http://www.w3.org/1999/02/22-rdf-syntax-ns#"
   xmlns:svg="http://www.w3.org/2000/svg"
   xmlns="http://www.w3.org/2000/svg"
   xmlns:sodipodi="http://sodipodi.sourceforge.net/DTD/sodipodi-0.dtd"
   xmlns:inkscape="http://www.inkscape.org/namespaces/inkscape"
   viewBox="0 0 16 16"
   id="svg2"
   version="1.1"
   inkscape:version="0.91 r13725"
   sodipodi:docname="indicator-keyboard-In-5.svg">
  <metadata
     id="metadata14">
    <rdf:RDF>
      <cc:Work
         rdf:about="">
        <dc:format>image/svg+xml</dc:format>
        <dc:type
           rdf:resource="http://purl.org/dc/dcmitype/StillImage" />
      </cc:Work>
    </rdf:RDF>
  </metadata>
  <defs
     id="defs12" />
  <sodipodi:namedview
     pagecolor="#ffffff"
     bordercolor="#666666"
     borderopacity="1"
     objecttolerance="10"
     gridtolerance="10"
     guidetolerance="10"
     inkscape:pageopacity="0"
     inkscape:pageshadow="2"
     inkscape:window-width="640"
     inkscape:window-height="480"
     id="namedview10"
     showgrid="false"
     inkscape:zoom="14.75"
     inkscape:cx="8"
     inkscape:cy="8"
     inkscape:window-x="65"
     inkscape:window-y="24"
     inkscape:window-maximized="0"
     inkscape:current-layer="svg2" />
  <path
     style="fill:#ececec;fill-opacity:1"
     d="M 1.5996094 0 C 0.71320937 2.9605947e-16 0 0.71320937 0 1.5996094 L 0 14.400391 C 2.9605947e-16 15.286791 0.71320937 16 1.5996094 16 L 14.400391 16 C 15.286791 16 16 15.286791 16 14.400391 L 16 1.5996094 C 16 0.71320937 15.286791 0 14.400391 0 L 1.5996094 0 z M 3.3183594 4.859375 L 3.9296875 4.859375 L 3.9296875 11.095703 L 3.3183594 11.095703 L 3.3183594 4.859375 z M 7.296875 6.3535156 C 7.650875 6.3535156 7.9456875 6.4038594 8.1796875 6.5058594 C 8.4196875 6.6078594 8.6080937 6.7552656 8.7460938 6.9472656 C 8.8900938 7.1332656 8.9927344 7.3570938 9.0527344 7.6210938 C 9.1127344 7.8850938 9.1425781 8.1761406 9.1425781 8.4941406 L 9.1425781 11.095703 L 8.5566406 11.095703 L 8.5566406 8.6835938 C 8.5566406 8.3535938 8.532375 8.0756562 8.484375 7.8476562 C 8.442375 7.6196563 8.3677656 7.4330625 8.2597656 7.2890625 C 8.1577656 7.1450625 8.0197031 7.0424219 7.8457031 6.9824219 C 7.6777031 6.9164219 7.4650313 6.8847656 7.2070312 6.8847656 C 6.9310312 6.8847656 6.6903281 6.8996875 6.4863281 6.9296875 C 6.2883281 6.9596875 6.1596094 6.9857656 6.0996094 7.0097656 L 6.0996094 11.095703 L 5.515625 11.095703 L 5.515625 6.6054688 C 5.689625 6.5574688 5.9227969 6.5033594 6.2167969 6.4433594 C 6.5107969 6.3833594 6.870875 6.3535156 7.296875 6.3535156 z M 10.716797 8.8417969 L 12.541016 8.8417969 L 12.541016 9.1757812 L 11.048828 9.1757812 C 11.044895 9.2498812 11.039017 9.3458906 11.03125 9.4628906 C 11.02345 9.5798906 11.015612 9.6994188 11.007812 9.8242188 C 11.000013 9.9451188 10.990216 10.062681 10.978516 10.175781 C 10.966816 10.288881 10.957019 10.379012 10.949219 10.445312 C 11.249519 10.453112 11.510116 10.490341 11.728516 10.556641 C 11.946916 10.622941 12.125225 10.711119 12.265625 10.824219 C 12.406025 10.937319 12.509872 11.074475 12.576172 11.234375 C 12.646372 11.394275 12.681641 11.572578 12.681641 11.767578 C 12.681641 11.939178 12.65225 12.097894 12.59375 12.246094 C 12.53915 12.394294 12.452938 12.523613 12.335938 12.632812 C 12.218938 12.742012 12.071978 12.828225 11.892578 12.890625 C 11.713178 12.953025 11.499606 12.984375 11.253906 12.984375 C 11.129106 12.984375 11.011544 12.974578 10.902344 12.955078 C 10.797044 12.939478 10.702988 12.919884 10.617188 12.896484 C 10.535288 12.873084 10.46475 12.849572 10.40625 12.826172 C 10.34775 12.802772 10.304644 12.783178 10.277344 12.767578 L 10.376953 12.427734 C 10.400353 12.443334 10.439541 12.462928 10.494141 12.486328 C 10.552641 12.509728 10.619259 12.533241 10.693359 12.556641 C 10.771359 12.576141 10.855619 12.593775 10.949219 12.609375 C 11.046719 12.624975 11.148606 12.632812 11.253906 12.632812 C 11.448906 12.632812 11.611534 12.611259 11.740234 12.568359 C 11.872834 12.521559 11.976688 12.458859 12.054688 12.380859 C 12.132688 12.302859 12.18755 12.212728 12.21875 12.111328 C 12.25385 12.006028 12.271484 11.894337 12.271484 11.773438 C 12.271484 11.617437 12.246012 11.476362 12.195312 11.351562 C 12.144613 11.226762 12.056434 11.120956 11.927734 11.035156 C 11.799034 10.949356 11.62465 10.884697 11.40625 10.841797 C 11.18785 10.794997 10.911572 10.771484 10.576172 10.771484 C 10.599572 10.572584 10.619166 10.392316 10.634766 10.228516 C 10.650366 10.060816 10.664081 9.9001469 10.675781 9.7480469 C 10.687481 9.5920469 10.695319 9.4431281 10.699219 9.2988281 C 10.707019 9.1506281 10.712897 8.9977969 10.716797 8.8417969 z "
     id="path4" />
</svg>

<svg xmlns="http://www.w3.org/2000/svg" viewBox="0 0 16 16">
 <path d="m 1.6 0 c -0.886 0 -1.6 0.713 -1.6 1.6 l 0 12.801 c 0 0.886 0.713 1.6 1.6 1.6 l 12.801 0 c 0.886 0 1.6 -0.713 1.6 -1.6 l 0 -12.801 c 0 -0.886 -0.713 -1.6 -1.6 -1.6 l -12.801 0 z m 1.719 4.859 l 0.611 0 l 0 6.236 l -0.611 0 l 0 -6.236 z m 3.979 1.494 c 0.354 0 0.649 0.05 0.883 0.152 c 0.24 0.102 0.428 0.249 0.566 0.441 c 0.144 0.186 0.247 0.41 0.307 0.674 c 0.06 0.264 0.09 0.555 0.09 0.873 l 0 2.602 l -0.586 0 l 0 -2.412 c 0 -0.33 -0.024 -0.608 -0.072 -0.836 c -0.042 -0.228 -0.117 -0.415 -0.225 -0.559 c -0.102 -0.144 -0.24 -0.247 -0.414 -0.307 c -0.168 -0.066 -0.381 -0.098 -0.639 -0.098 c -0.276 0 -0.517 0.015 -0.721 0.045 c -0.198 0.03 -0.327 0.056 -0.387 0.08 l 0 4.086 l -0.584 0 l 0 -4.49 c 0.174 -0.048 0.407 -0.102 0.701 -0.162 c 0.294 -0.06 0.654 -0.09 1.08 -0.09 z m 3.42 2.488 l 1.824 0 l 0 0.334 l -1.492 0 c -0.004 0.074 -0.01 0.17 -0.018 0.287 c -0.008 0.117 -0.016 0.237 -0.023 0.361 c -0.008 0.121 -0.018 0.238 -0.029 0.352 c -0.012 0.113 -0.021 0.203 -0.029 0.27 c 0.3 0.008 0.561 0.045 0.779 0.111 c 0.218 0.066 0.397 0.154 0.537 0.268 c 0.14 0.113 0.244 0.25 0.311 0.41 c 0.07 0.16 0.105 0.338 0.105 0.533 c 0 0.172 -0.029 0.33 -0.088 0.479 c -0.055 0.148 -0.141 0.278 -0.258 0.387 c -0.117 0.109 -0.264 0.195 -0.443 0.258 c -0.179 0.062 -0.393 0.094 -0.639 0.094 c -0.125 0 -0.242 -0.01 -0.352 -0.029 c -0.105 -0.016 -0.199 -0.035 -0.285 -0.059 c -0.082 -0.023 -0.152 -0.047 -0.211 -0.07 c -0.059 -0.023 -0.102 -0.043 -0.129 -0.059 l 0.1 -0.34 c 0.023 0.016 0.063 0.035 0.117 0.059 c 0.058 0.023 0.125 0.047 0.199 0.07 c 0.078 0.019 0.162 0.037 0.256 0.053 c 0.098 0.016 0.199 0.023 0.305 0.023 c 0.195 0 0.358 -0.022 0.486 -0.064 c 0.133 -0.047 0.236 -0.109 0.314 -0.188 c 0.078 -0.078 0.133 -0.168 0.164 -0.27 c 0.035 -0.105 0.053 -0.217 0.053 -0.338 c 0 -0.156 -0.025 -0.297 -0.076 -0.422 c -0.051 -0.125 -0.139 -0.231 -0.268 -0.316 c -0.129 -0.086 -0.303 -0.15 -0.521 -0.193 c -0.218 -0.047 -0.495 -0.07 -0.83 -0.07 c 0.023 -0.199 0.043 -0.379 0.059 -0.543 c 0.016 -0.168 0.029 -0.328 0.041 -0.48 c 0.012 -0.156 0.02 -0.305 0.023 -0.449 c 0.008 -0.148 0.014 -0.301 0.018 -0.457 z" style="fill:#ececec;fill-opacity:1"/>
</svg>
